X:1
T:Title
%%score { ( 1 3 4 ) | ( 2 5 6 ) }
L:1/8
M:4/4
K:Bb
V:1 treble nm="Grand Piano"
V:3 treble 
V:4 treble 
V:2 bass 
V:5 bass 
V:6 bass 
V:1
 z4 z2[Q:1/4=100] [DB]>[Ec] | [Fd]>[DB] [Ge]>[Ed] [Ec]<[EB] [GB]>[EG] | %2
[M:3/4] [DF]>[EG] [DF]>[B,D] [DF]2 |[M:1/4] [DB]>[Ec] | %4
[M:4/4] [Fd]>[Fd] [Ge]>[Fd] [=Ec]<[Ec] [EB]>[EG] |[M:3/4] [FA]>[FA] [=EB]>[EB] [_Ec]2 | %6
[M:1/4] [DB]>[Ec] |[M:4/4] [Fd]>[DB] [Ge]>[Ed] [Ec]<[EB] [GB]>[EG] | %8
[M:3/4] [DF]>[EG] [DF]>[B,D] [DF]2 |[M:1/4] [DB]>[Ec] | %10
[M:5/4] [Fd]>[Fd] [Ge]>[Fd]- [Fd][Ec]/[Ec]/- [Ec][Fd]- [Fd]<[Ec] |[M:3/4] [DB]6 | %12
[M:1/4] [DB]>[FA] |[M:4/4] G>G G>[FA] [GB]>[^FA] [GB]>[EG] | [DF]>[EG] [DF]>[F,B,D] [B,DF]2 F>d | %15
 c6 z2 |[M:3/4] d6 |[M:1/4] [B,DB]>[B,FA] | %18
[M:4/4] [B,EG]>[B,EG] [B,EG]>[B,FA] [EGB]>[E^FA] [EGB]>[B,EG] | %19
 [B,DF]>[B,EG] [B,DF]>[F,B,D] [B,DF]2 F>d | c6 z2 |[M:3/4] [DB]6 |] %22
V:2
 z4 z2 [B,,B,]>[B,,B,] | [B,,F,]>[B,,F,] [B,,B,]>[B,,B,] [E,G,]<[E,G,] [E,B,]>[E,B,] | %2
[M:3/4] [B,,B,]>[B,,B,] [B,,B,]>[B,,F,] [B,,B,]2 |[M:1/4] [B,,B,]>[B,,B,] | %4
[M:4/4] [B,,B,]>[B,,B,] [B,,B,]>[B,,B,] [C,G,]<[C,G,] [C,C]>[C,C] | %5
[M:3/4] [F,C]>[F,C] [C,C]>[C,G,] [F,A,]2 |[M:1/4] [B,,B,]>[B,,B,] | %7
[M:4/4] [B,,F,]>[B,,F,] [B,,B,]>[B,,B,] [E,G,]<[E,G,] [E,B,]>[E,B,] | %8
[M:3/4] [B,,B,]>[B,,B,] [B,,B,]>[B,,F,] [B,,B,]2 |[M:1/4] [B,,F,]2 | %10
[M:5/4] [B,,F,]2 [B,,F,]3 [F,,F,]2 [F,,F,]3 |[M:3/4] [B,,F,]6 |[M:1/4] [B,,B,]>[B,,B,] | %13
[M:4/4] [E,B,E]>[E,B,E] [E,B,E]>[E,B,] [E,E]>[E,E] [E,E]>[E,B,] | %14
 [B,,B,]>[B,,B,] [B,,B,]>B,, B,,2[K:treble] D>F | F6[K:bass][K:treble] z2 |[M:3/4] F6[K:bass] | %17
[M:1/4] B,,>B,, |[M:4/4] E,>E, E,>E, E,>E, E,>E, | B,,>B,, B,,>B,, B,,2[K:treble] D>F | %20
 F6[K:bass] z2 |[M:3/4] [B,,B,]6 |] %22
V:3
 x8 | x8 |[M:3/4] x6 |[M:1/4] x2 |[M:4/4] x8 |[M:3/4] x6 |[M:1/4] x2 |[M:4/4] x8 |[M:3/4] x6 | %9
[M:1/4] x2 |[M:5/4] x10 |[M:3/4] x6 |[M:1/4] x2 |[M:4/4] x8 | x8 | z2 A,>A, z z/ c/ (3ed_d | %16
[M:3/4] z2 B,>B, .B,2 |[M:1/4] x2 |[M:4/4] x8 | x8 | z2 A,>A, A,>c (3edc |[M:3/4] x6 |] %22
V:4
 x8 | x8 |[M:3/4] x6 |[M:1/4] x2 |[M:4/4] x8 |[M:3/4] x6 |[M:1/4] x2 |[M:4/4] x8 |[M:3/4] x6 | %9
[M:1/4] x2 |[M:5/4] x10 |[M:3/4] x6 |[M:1/4] x2 |[M:4/4] x8 | x8 | z4 A,2 z2 |[M:3/4] x6 | %17
[M:1/4] x2 |[M:4/4] x8 | x8 | x8 |[M:3/4] x6 |] %22
V:5
 x8 | x8 |[M:3/4] x6 |[M:1/4] x2 |[M:4/4] x8 |[M:3/4] x6 |[M:1/4] x2 |[M:4/4] x8 |[M:3/4] x6 | %9
[M:1/4] x2 |[M:5/4] x10 |[M:3/4] x6 |[M:1/4] x2 |[M:4/4] x8 | x6[K:treble] x2 | %15
 z2[K:bass] F,>F, z z/[K:treble] F/ (3GF=E |[M:3/4] z2[K:bass] B,,>B,, .B,,2 |[M:1/4] x2 | %18
[M:4/4] x8 | x6[K:treble] x2 | z2[K:bass] F,>F, F,>[F,A,F] (3[F,A,G][F,B,F][F,A,E] |[M:3/4] x6 |] %22
V:6
 x8 | x8 |[M:3/4] x6 |[M:1/4] x2 |[M:4/4] x8 |[M:3/4] x6 |[M:1/4] x2 |[M:4/4] x8 |[M:3/4] x6 | %9
[M:1/4] x2 |[M:5/4] x10 |[M:3/4] x6 |[M:1/4] x2 |[M:4/4] x8 | x6[K:treble] x2 | %15
 z4[K:bass] F,2[K:treble] z2 |[M:3/4] x2[K:bass] x4 |[M:1/4] x2 |[M:4/4] x8 | x6[K:treble] x2 | %20
 x2[K:bass] x6 |[M:3/4] x6 |] %22

